X:1
T:Title
%%score { ( 1 3 ) | ( 2 4 ) }
L:1/8
M:2/4
K:G
V:1 treble nm="Grand Piano"
V:3 treble 
V:2 bass 
V:4 bass 
V:1
 z2 z[Q:1/4=90] [B,D] | [B,D][DB] [DB][DB] | [DB][DB] [DB]>[DB] | cB .A>G, | A3 D | DA AA | %6
 AA A>B | [Ec][Ec] [DB]>[CA] | [B,G]3 [B,D] | [B,D][DB] [DB][DB] | [DB][DB] [DB]>[DB] | cB .A>G, | %12
 A3 [DB] | [Ec][CE] [CE][Ec] | [DB][B,D] [B,D][DB] | AD B>A |[M:3/8] [B,G]3 |[M:1/8] [DB] | %18
[M:2/4] [Ec]>[Ec] [Ec]<[Ec] | [DB]>[DB] [DB][DB] | [DA][DA] [G^c][Gc] | [Fd]3 [Ac] | %22
 [GB][FA] [EG][DF] | [DF][CE] [Ec]>[Ec] | BB A>A |[M:3/8] [G,B,G]3 |[M:1/8] d | %27
[M:2/4] c[GB] [FA]e | d[Ac] [GB][Bg] | [Gd][Ge] [DGB][FA] |[M:3/8] [B,G]3 |] %31
V:2
 z2 z [G,,G,] | [G,,G,][G,,G,] [G,,G,][G,,G,] | [G,,G,][G,,G,] [G,,G,]>[G,,G,] | %3
 [D,F,D][D,G,D] [D,A,C].[D,B,] | [D,F,C]3 [D,F,C] | [D,F,C][D,F,C] [D,F,C][D,F,C] | %6
 [D,F,C][D,F,C] [D,F,C]>[D,F,D] | [D,F,][D,F,] [D,F,]>[D,F,] | [G,,G,]3 [G,,G,] | %9
 [G,,G,][G,,G,] [G,,G,][G,,G,] | [G,,G,][G,,G,] [G,,G,]>[G,,G,] | [D,F,D][D,G,D] [D,A,C].[D,B,] | %12
 [D,F,D]3 [G,,G,] | [C,G,][C,G,] [C,G,][C,G,] | [G,,G,][G,,G,] [G,,G,][G,,G,] | %15
 [D,F,C][D,F,C] [D,F,D]>[D,F,C] |[M:3/8] [G,,G,]3 |[M:1/8] [G,,G,] | %18
[M:2/4] [C,G,]>[C,G,] [C,G,]<[C,G,] | [G,,G,]>[G,,G,] [G,,G,][G,,G,] | %20
 [A,,F,][A,,F,] [A,,A,][A,,A,] | [D,A,]3 [D,F,] | [G,,G,][G,,G,] [G,,G,][G,,G,] | %23
 [C,G,][C,G,] [C,G,]>[C,G,] | [D,G,D][D,G,D] [D,F,C]>[D,F,C] |[M:3/8] G,,3 |[M:1/8][K:treble] B | %27
[M:2/4] AG,/B,/ Dc | B[K:bass]D,/F,/ G,[G,,,G,,] | [B,,,B,,]C,, z [CD] |[M:3/8] [G,,G,]3 |] %31
V:3
 x4 | x4 | x4 | z2 z G | x4 | x4 | x4 | x4 | x4 | x4 | x4 | z2 z G | x4 | x4 | x4 | x4 | %16
[M:3/8] x3 |[M:1/8] x |[M:2/4] x4 | x4 | x4 | x4 | x4 | x4 | x4 |[M:3/8] x3 |[M:1/8] x | %27
[M:2/4] x4 | x4 | x4 |[M:3/8] x3 |] %31
V:4
 x4 | x4 | x4 | x4 | x4 | x4 | x4 | x4 | x4 | x4 | x4 | x4 | x4 | x4 | x4 | x4 |[M:3/8] x3 | %17
[M:1/8] x |[M:2/4] x4 | x4 | x4 | x4 | x4 | x4 | x4 |[M:3/8] x3 |[M:1/8][K:treble] x |[M:2/4] x4 | %28
 x[K:bass] x3 | z2 [D,,D,]2 |[M:3/8] x3 |] %31

